X:34
T:Réveillez-vous, Belle endormie
R:Chanson
O:France
B:Le livre des Chansons (Henri Davenson) n°34
Z:<anamnese@caramail.com> -- http://anamnese.fr.st
M:6/8
L:1/8
Q:1/4=80
K:Bb
F F B | B-A B c2 d | c2 B e d f | e-d c B2 d | c2 z c d e |!
f2 B B-A B | c2 c e e d | c-d B G2 A | B6 ||
W:"Réveillez-vous, Belle endormie
W:Réveillez-vous, car il est jour
W:Mettez la tête à la fenêtre,
W:Vous entendrez parler de vous."

